X: 5706
T: Cad E Sin Don Te Sin
R: waltz
M: 3/4
K: Eminor
[V:F1] E2|"Em" E2 > G F2|"D"E2 D2 E2|"A" G2 > A BG|"C" A4 GA|"Em" B2 e2 B2|"C" c2 B2 A2|"Em" G2>E E2 |"D" D4 D2|
"Em" E2 > G F2|E2 D2 E2|"G" G2 > A BG|"D" A4 GA|"Em" B2 e2 B2|"Am" c2 B2 A2|"Em" G2 E2 "D" D2|"Em" E4 D2|
"Em" E2 > G F2|E2 D2 E2|"G" G2 >A BG|"D" A4 GA|"Em" B2 e2 B2|"Am" c2 B2 A2|"Em" G2 E2 E2|"D" D4 d2|
"Em" e2>g f2|e2 d2 e2|"G" g2>f e2|"D" f4 ef|"Em" g2 a2 b2|"Am" a2 g2 f2|"Em" e4"D"d2|"Em" e4||
[V:F2] z2|z6|z6|z6|z6|z6|z6|z6|z4 F2|
G4 A2|G2 F2 G2|B2 A2 G2|F6|G6|c6|B2 G2 F2|G4 F2|
G4 A2|G2 F2 G2|B2 A2 G2|F6|G6 |c6|B4 G2|F4 F2|
G4 A2|G2 F2 G2|B2 A2 G2|F6|G6|c6|B2 G2 F2|G4||

